components/icon/svg/24/maps_trainstation.svg

<?xml version="1.0" encoding="UTF-8"?>
<svg width="24px" height="24px" viewBox="0 0 24 24" version="1.1" xmlns="http://www.w3.org/2000/svg" xmlns:xlink="http://www.w3.org/1999/xlink">
    <!-- Generator: Sketch 64 (93537) - https://sketch.com -->
    <title>ic-db_maps_trainstation_24</title>
    <desc>Created with Sketch.</desc>
    <g id="Symbols" stroke="none" stroke-width="1" fill="none" fill-rule="evenodd">
        <g id="24dp-Icon/Maps/Trainstation" fill="#282D37">
            <path d="M16.9688,2 C17.5312,2 18,2.4375 18,3 L18,12 L21,12 C21.5625,12 22,12.4375 22,13 L22,21 C22,21.5 21.5,22 21,22 L14,22 C13.5,22 13,21.5 13,20.9688 L13,17.5 C13,17.25 12.7812,17 12.5,17 L11.4688,17 C11.2188,17 11,17.25 11,17.5 L11,20.9688 C11,21.5312 10.5312,22 10,22 L3,22 C2.4375,22 2,21.5312 2,20.9688 L2,13 C2,12.5 2.5,12 3,12 L6,12 L6,3 C6,2.4375 6.4688,2 7,2 L16.9688,2 Z M16,4 L8,4 L8,13 C8,13.5625 7.5625,14 7,14 L4,14 L4,20 L9,20 L9,17.5 C9,16.125 10.125,15 11.4688,15 L12.5,15 C13.8438,15 14.9688,16.125 14.9688,17.5 L14.9688,20 L20,20 L20,14 L17,14 C16.75,14 16.5,13.9062 16.3124,13.7188 C16.125,13.5312 16,13.2812 16,13 L16,4 Z M10,8 C10,6.9062 10.9062,6 12,6 C13.0938,6 14,6.9062 14,8 C14,9.125 13.0938,10 12,10 C10.9062,10 10,9.125 10,8 Z" id="🎨-Color"></path>
        </g>
    </g>
</svg>

<svg width="24" height="24" xmlns="http://www.w3.org/2000/svg"><path d="M16.969 2C17.53 2 18 2.438 18 3v9h3c.563 0 1 .438 1 1v8c0 .5-.5 1-1 1h-7c-.5 0-1-.5-1-1.031V17.5c0-.25-.219-.5-.5-.5h-1.031c-.25 0-.469.25-.469.5v3.469C11 21.53 10.531 22 10 22H3c-.563 0-1-.469-1-1.031V13c0-.5.5-1 1-1h3V3c0-.563.469-1 1-1h9.969zM16 4H8v9c0 .563-.438 1-1 1H4v6h5v-2.5c0-1.375 1.125-2.5 2.469-2.5H12.5c1.344 0 2.469 1.125 2.469 2.5V20H20v-6h-3a.97.97 0 01-.688-.281A1.018 1.018 0 0116 13V4zm-6 4c0-1.094.906-2 2-2 1.094 0 2 .906 2 2 0 1.125-.906 2-2 2-1.094 0-2-.875-2-2z" fill="#282D37" fill-rule="evenodd"/></svg>
